layouts/icon-pack/spell_smoke.svg

<?xml version="1.0" encoding="UTF-8"?>
<svg width="1200pt" height="1200pt" version="1.1" viewBox="0 0 1200 1200" xmlns="http://www.w3.org/2000/svg">
 <g fill="#fff">
  <path d="m807.42 717.19c-9.4844-4.0703-19.965-5.2344-30.113-3.3438-10.145 1.8906-19.504 6.75-26.887 13.961-18.445 17.484-42.914 51.914-49.406 114.56-0.45312 4.4648 2.0469 8.7031 6.1758 10.461s8.9219 0.625 11.824-2.7969c8.4375-10.312 18.922-18.754 30.797-24.797 5.1602-2.3672 10.629-4 16.242-4.8516 16.406-2.7188 63.703-14.578 65.297-60.445 0.84375-24.656-10.758-36.844-23.93-42.75z"/>
  <path d="m987.38 486.68s-5.3906-57.281-36.445-92.156c-3.5859-4.0352-8.4258-6.7344-13.742-7.668-5.3164-0.93359-10.789-0.039063-15.531 2.5352-26.156 13.988-53.883 24.824-82.594 32.273-5.1797 1.3711-9.7734 4.3828-13.105 8.582-3.3281 4.1992-5.207 9.3594-5.3633 14.715-0.77344 21.91-5.4727 43.5-13.875 63.75-2.6133 6.5-7.8555 11.594-14.43 14.016-6.5742 2.418-13.867 1.9414-20.07-1.3125-5.4453-3.0078-9.5977-7.9102-11.664-13.781-2.0664-5.8672-1.9023-12.293 0.46094-18.047 35.438-89.062-33.844-136.66-36.82-138.66-5.8164-3.8828-9.7266-10.039-10.77-16.953-1.043-6.9141 0.875-13.949 5.2852-19.375 4.0469-4.7656 9.7148-7.8672 15.91-8.707 6.1953-0.83984 12.484 0.64453 17.652 4.1602 19.426 13.555 35.57 31.285 47.25 51.891 2.7422 4.7695 6.9961 8.4922 12.09 10.582 5.0898 2.0859 10.73 2.4219 16.035 0.94922 24.797-6.5352 48.738-15.977 71.32-28.125 13.188-7.3008 24.18-18 31.84-30.98 7.6602-12.98 11.711-27.773 11.73-42.848 0-53.391-14.812-117.63-72.492-167.44-22.156-19.859-47.516-35.828-75-47.227-29.969-12.145-62.766-15.562-94.598-9.8516-31.828 5.707-61.395 20.309-85.273 42.113-23.883 21.805-41.102 49.926-49.676 81.105-9.0469 35.344-11.504 72.051-7.2422 108.28 1.9531 17.176 5.3398 34.156 10.125 50.766 4.5391 16.523 7.75 33.379 9.6094 50.414 1.2891 10.629-1.5625 21.348-7.9688 29.93-5.5078 7.1484-10.758 8.4609-15.727 8.4609-6.2773-0.003906-12.316-2.3867-16.902-6.6719-4.5859-4.2852-7.375-10.152-7.8008-16.414-1.2344-17.73-4.2422-35.297-8.9766-52.43v-0.16406c-3.0312-10.973-9.7422-20.574-19.008-27.188-39.93-28.301-89.145-40.32-137.62-33.609-2.1328 0.28125-4.2422 0.60938-6.3047 0.9375-135 21.938-148.38 211.55-18.75 255.23 40.125 13.523 91.406 20.812 156.05 14.273 29.461-2.9766 58.312 7.5469 80.93 24.398 3.8594 2.8867 7.5312 6.0195 10.992 9.375 4.9766 4.793 7.7891 11.406 7.7891 18.316 0 6.9102-2.8125 13.523-7.7891 18.316-4.707 4.3047-10.895 6.625-17.27 6.4883-6.3789-0.14062-12.457-2.7344-16.973-7.2383-1.9648-2.0234-4.1133-3.8594-6.4219-5.4844-5.0508-3.4375-10.477-6.2891-16.172-8.5078-13.383-5.2734-28.664 8.2969-22.148 21.094 31.992 63.047 31.523 237.73 31.523 251.32v62.859s-73.781-32.812-112.03 24.586c0 0-16.406 35.531-2.7188 65.625 0 0-54.656 60.117-164.06 80.297-23.789 4.3828-16.266 42.188 7.9219 42.188h627.07c25.781 0 33.281-34.969 9.9141-45.633-19.605-8.8477-38.539-19.117-56.648-30.727-26.969-17.309-50.047-40.043-67.758-66.75-13.34-20.863-33.359-36.586-56.789-44.602-8.25-2.8438-17.18-3.0742-25.566-0.66016-8.3867 2.4102-15.828 7.3477-21.309 14.137-8.9766 11.484-16.617 28.641-17.367 53.906-0.19531 6.4336-2.8867 12.543-7.5078 17.027-4.6211 4.4844-10.805 6.9922-17.242 6.9961h-0.75c-6.5391-0.26172-12.715-3.0703-17.207-7.8281-4.4961-4.7578-6.9492-11.082-6.8398-17.625 0.98438-33.141 10.266-57.633 22.359-75.633 3.1719-4.6289 4.6719-10.203 4.2422-15.797-2.7422-32.367-4.5234-88.688 7.9219-145.31 19.336-87.727 88.688-156.75 177-173.32 2.1094-0.39844 4.2188-0.77344 6.375-1.1016 22.703-3.457 44.848-9.9062 65.859-19.172 43.195-19.383 99.961-56.812 93.07-116.91z"/>
  <path d="m251.84 276.56c27.047-22.43 61.289-38.133 105.47-43.945 41.219-5.6992 83.215-0.60156 121.88 14.789 6.1211 2.4727 13.066 1.793 18.594-1.8203 5.5273-3.6094 8.9375-9.6953 9.1328-16.297 0.87891-29.293 5.7344-58.332 14.438-86.32 1.5859-4.9023 1.2188-10.227-1.0273-14.863-2.2422-4.6367-6.1914-8.2305-11.02-10.027-48.148-17.805-100.68-19.992-150.14-6.2578-52.91 14.301-98.027 48.922-125.53 96.328-7.4297 12.922-13.871 26.391-19.266 40.289-0.21094 0.53906-0.42188 1.0781-0.60938 1.6172-8.8828 23.016 19.031 42.211 38.086 26.508z"/>
  <path d="m423.98 732.77c18.125 5.4258 35.238 13.793 50.648 24.773 3.8438 2.7188 8.8945 3.0352 13.043 0.80859 4.1523-2.2227 6.6875-6.6016 6.5508-11.309-2.4609-81.586-38.859-121.69-60.938-138.59-7.2383-5.5312-15.84-9.0078-24.891-10.055h-0.44531c-13.539-1.5938-27.156 2.2695-37.836 10.742-10.68 8.4727-17.543 20.852-19.07 34.398-1.793 16.895 1.9766 33.91 10.73 48.473 8.7578 14.559 22.023 25.863 37.785 32.199 7.1484 2.9297 15.281 5.8125 24.422 8.5547z"/>
 </g>
</svg>

<?xml version="1.0" encoding="UTF-8" standalone="no"?>
<!DOCTYPE svg PUBLIC "-//W3C//DTD SVG 1.1//EN" "http://www.w3.org/Graphics/SVG/1.1/DTD/svg11.dtd">
<svg width="100%" height="100%" viewBox="0 0 358 512" version="1.1" xmlns="http://www.w3.org/2000/svg" xmlns:xlink="http://www.w3.org/1999/xlink" xml:space="preserve" xmlns:serif="http://www.serif.com/" style="fill-rule:evenodd;clip-rule:evenodd;stroke-linejoin:round;stroke-miterlimit:2;">
    <g transform="matrix(1,0,0,1,-212.063,-44.3107)">
        <g transform="matrix(0.460698,0,0,0.460698,114.366,23.8968)">
            <path d="M807.42,717.19C797.936,713.12 787.455,711.956 777.307,713.846C767.162,715.737 757.803,720.596 750.42,727.807C731.975,745.291 707.506,779.721 701.014,842.367C700.561,846.832 703.061,851.07 707.19,852.828C711.319,854.586 716.112,853.453 719.014,850.031C727.451,839.719 737.936,831.277 749.811,825.234C754.971,822.867 760.44,821.234 766.053,820.383C782.459,817.664 829.756,805.805 831.35,759.938C832.194,735.282 820.592,723.094 807.42,717.188L807.42,717.19Z" style="fill:white;fill-rule:nonzero;"/>
            <path d="M987.38,486.68C987.38,486.68 981.989,429.399 950.935,394.524C947.349,390.489 942.509,387.79 937.193,386.856C931.877,385.922 926.404,386.817 921.662,389.391C895.506,403.379 867.779,414.215 839.068,421.664C833.888,423.035 829.295,426.047 825.963,430.246C822.635,434.445 820.756,439.606 820.6,444.961C819.826,466.871 815.127,488.461 806.725,508.711C804.111,515.211 798.869,520.305 792.295,522.727C785.721,525.145 778.428,524.669 772.225,521.415C766.779,518.407 762.627,513.504 760.561,507.634C758.494,501.766 758.658,495.341 761.022,489.587C796.46,400.525 727.178,352.927 724.202,350.927C718.385,347.044 714.475,340.888 713.432,333.974C712.389,327.06 714.307,320.025 718.717,314.599C722.764,309.833 728.432,306.731 734.627,305.892C740.822,305.052 747.111,306.536 752.279,310.052C771.705,323.607 787.849,341.337 799.529,361.943C802.271,366.712 806.525,370.435 811.619,372.525C816.709,374.611 822.349,374.947 827.654,373.474C852.451,366.939 876.392,357.497 898.974,345.349C912.162,338.048 923.154,327.349 930.814,314.369C938.474,301.389 942.525,286.596 942.544,271.521C942.544,218.13 927.732,153.891 870.052,104.081C847.896,84.222 822.536,68.253 795.052,56.854C765.083,44.709 732.286,41.292 700.454,47.003C668.626,52.71 639.059,67.312 615.181,89.116C591.298,110.921 574.079,139.042 565.505,170.221C556.458,205.565 554.001,242.272 558.263,278.501C560.216,295.677 563.602,312.657 568.388,329.267C572.927,345.79 576.138,362.646 577.997,379.681C579.286,390.31 576.435,401.029 570.028,409.611C564.52,416.759 559.27,418.071 554.301,418.071C548.024,418.068 541.985,415.685 537.399,411.4C532.813,407.114 530.024,401.248 529.598,394.986C528.364,377.256 525.356,359.689 520.622,342.556L520.622,342.391C517.591,331.418 510.88,321.817 501.614,315.203C461.684,286.902 412.469,274.883 363.994,281.594C361.861,281.876 359.752,282.204 357.689,282.532C222.689,304.47 209.309,494.082 338.939,537.762C379.064,551.285 430.345,558.574 494.989,552.035C524.45,549.058 553.301,559.582 575.919,576.433C579.779,579.32 583.45,582.452 586.911,585.808C591.888,590.601 594.7,597.214 594.7,604.124C594.7,611.034 591.888,617.647 586.911,622.44C582.204,626.745 576.016,629.065 569.641,628.928C563.262,628.788 557.184,626.194 552.668,621.69C550.703,619.667 548.555,617.831 546.246,616.206C541.195,612.768 535.769,609.916 530.074,607.698C516.691,602.424 501.41,615.995 507.926,628.792C539.918,691.839 539.449,866.522 539.449,880.112L539.449,942.971C539.449,942.971 465.668,910.159 427.419,967.557C427.419,967.557 411.013,1003.09 424.7,1033.18C424.7,1033.18 370.044,1093.3 260.64,1113.48C236.851,1117.86 244.374,1155.67 268.562,1155.67L895.632,1155.67C921.413,1155.67 928.913,1120.7 905.546,1110.03C885.941,1101.19 867.007,1090.92 848.898,1079.31C821.929,1062 798.851,1039.26 781.14,1012.56C767.8,991.694 747.781,975.971 724.351,967.955C716.101,965.111 707.171,964.881 698.785,967.295C690.399,969.705 682.957,974.642 677.476,981.432C668.5,992.916 660.859,1010.07 660.109,1035.34C659.914,1041.77 657.223,1047.88 652.602,1052.37C647.981,1056.85 641.797,1059.36 635.36,1059.36L634.61,1059.36C628.071,1059.1 621.895,1056.29 617.403,1051.53C612.907,1046.78 610.453,1040.45 610.563,1033.91C611.547,1000.77 620.829,976.275 632.922,958.275C636.094,953.646 637.594,948.072 637.164,942.478C634.422,910.111 632.641,853.79 645.086,797.168C664.422,709.441 733.774,640.418 822.086,623.848C824.195,623.449 826.305,623.074 828.461,622.746C851.164,619.289 873.309,612.84 894.32,603.574C937.515,584.191 994.281,546.762 987.39,486.664L987.38,486.68Z" style="fill:white;fill-rule:nonzero;"/>
            <path d="M251.84,276.56C278.887,254.13 313.129,238.427 357.31,232.615C398.529,226.916 440.525,232.013 479.19,247.404C485.311,249.877 492.256,249.197 497.784,245.584C503.311,241.974 506.722,235.888 506.917,229.287C507.796,199.994 512.651,170.955 521.355,142.967C522.941,138.064 522.574,132.74 520.328,128.104C518.085,123.467 514.136,119.873 509.308,118.077C461.159,100.272 408.628,98.085 359.168,111.819C306.258,126.12 261.141,160.741 233.638,208.147C226.208,221.069 219.767,234.538 214.372,248.436C214.161,248.975 213.95,249.514 213.762,250.053C204.879,273.069 232.793,292.264 251.848,276.561L251.84,276.56Z" style="fill:white;fill-rule:nonzero;"/>
            <path d="M423.98,732.77C442.105,738.196 459.218,746.563 474.628,757.543C478.472,760.262 483.523,760.578 487.671,758.352C491.823,756.129 494.359,751.75 494.222,747.043C491.761,665.457 455.363,625.353 433.284,608.453C426.046,602.921 417.444,599.445 408.393,598.398L407.947,598.398C394.408,596.804 380.791,600.667 370.111,609.14C359.431,617.612 352.568,629.992 351.041,643.538C349.248,660.433 353.018,677.448 361.771,692.011C370.529,706.57 383.794,717.874 399.556,724.21C406.705,727.139 414.837,730.022 423.978,732.764L423.98,732.77Z" style="fill:white;fill-rule:nonzero;"/>
        </g>
    </g>
</svg>
